images/heart14.svg

<svg width="103" height="86" viewBox="0 0 103 86" fill="none" xmlns="http://www.w3.org/2000/svg">
<g clip-path="url(#clip0_6330_25067)">
<path d="M-0.00146484 65.0337C-0.00146484 65.0337 15.5219 65.7659 28.7718 65.643L28.0997 72.7731L49.1661 70.7634V85.5714H54.3558V70.8863L75.7275 72.6528L74.7501 65.6456C74.7501 65.6456 95.123 65.8888 102.999 64.9749C102.999 64.9749 71.3305 64.5473 54.0505 64.3041C36.7705 64.0609 -0.00146484 65.0363 -0.00146484 65.0363L-0.00146484 65.0337Z" fill="#1F305E"/>
<path d="M89.628 42.2484L94.3919 31.89L81.0804 36.5213L74.7902 27.9909L63.4951 41.0324L71.4938 13.2443L58.8544 17.6939L51.6484 0.568848L44.2603 17.7527L31.4977 13.2443L39.558 40.971L28.0781 28.1138L22.0932 36.3396L8.72013 31.8312L13.2376 41.9464L0.0493164 42.6145C0.0493164 42.6145 22.0316 43.3441 45.0101 43.3682L45.1948 36.818L44.8976 36.4091L45.2243 28.2341L45.2323 28.0042L45.2484 27.9962L45.3796 27.9294L45.5108 28.3623L46.0142 28.3009L45.9687 26.7001L45.8295 26.6172L45.8589 26.3233C45.9527 26.2484 46.0437 26.1683 46.1347 26.0881C46.1455 26.0774 46.1562 26.0667 46.1669 26.056C46.2552 25.9732 46.3436 25.8903 46.4293 25.8048C46.4534 25.7808 46.4748 25.7567 46.4989 25.7327C46.6248 25.6044 46.7453 25.4734 46.8578 25.3425C46.8979 25.297 46.9327 25.2516 46.9729 25.2062C47.0158 25.1554 47.0613 25.102 47.1014 25.0512C47.1363 25.0057 47.1711 24.963 47.2059 24.9176C47.2621 24.8481 47.313 24.7786 47.3665 24.7091C47.3987 24.6637 47.4335 24.6209 47.4656 24.5755C47.5219 24.498 47.5754 24.4205 47.629 24.3457C47.6584 24.3029 47.6879 24.2601 47.7173 24.2174C47.7682 24.1425 47.8164 24.0677 47.8619 23.9982C47.8887 23.9555 47.9155 23.9127 47.9423 23.8726C48.0012 23.7791 48.0521 23.6962 48.0976 23.6187C48.1297 23.5626 48.1592 23.5118 48.186 23.4664C48.202 23.4397 48.2154 23.4156 48.2288 23.3916C48.3065 23.2553 48.3466 23.1751 48.3466 23.1751L48.0387 22.7315L48.2583 22.5257L48.269 22.515L48.3922 22.4001L48.684 22.5257V22.4295L48.6465 20.6363L48.3975 20.2354C48.3975 20.2354 48.4136 20.2167 48.4216 20.2087C51.0057 17.3171 50.9763 14.3614 50.9763 14.3614L50.6094 13.9952L51.0405 13.565V13.3512L50.9066 13.4795C50.9066 13.4795 50.92 13.5062 50.92 13.5222C50.92 13.5677 50.8825 13.6051 50.837 13.6051C50.7915 13.6051 50.754 13.5677 50.754 13.5222C50.754 13.4795 50.7861 13.4447 50.829 13.4394L50.9361 13.263L50.7995 13.1695L50.7004 13.2363C50.7004 13.2363 50.7058 13.2576 50.7058 13.2683C50.7058 13.3138 50.6683 13.3512 50.6228 13.3512C50.5773 13.3512 50.5398 13.3138 50.5398 13.2683C50.5398 13.2229 50.5773 13.1855 50.6228 13.1855C50.6362 13.1855 50.6496 13.1908 50.663 13.1962L51.0405 12.7659V12.6831V12.5628C50.9789 12.5468 50.9334 12.4907 50.9334 12.4238C50.9334 12.357 50.9789 12.3009 51.0405 12.2849V12.039H51.1128V12.2822C51.1771 12.2956 51.2253 12.3544 51.2253 12.4238C51.2253 12.4933 51.1771 12.5494 51.1128 12.5655V12.6857V12.7686L51.4904 13.1989C51.4904 13.1989 51.5145 13.1882 51.5306 13.1882C51.5761 13.1882 51.6136 13.2256 51.6136 13.271C51.6136 13.3164 51.5761 13.3539 51.5306 13.3539C51.4851 13.3539 51.4476 13.3164 51.4476 13.271C51.4476 13.2603 51.4476 13.2496 51.4529 13.2389L51.3538 13.1721L51.2173 13.2657L51.3244 13.442C51.3645 13.4474 51.3994 13.4821 51.3994 13.5249C51.3994 13.5703 51.3619 13.6077 51.3163 13.6077C51.2708 13.6077 51.2333 13.5703 51.2333 13.5249C51.2333 13.5089 51.2387 13.4955 51.2467 13.4821L51.1128 13.3539V13.5944L51.5038 13.9846L51.2039 14.2839C51.2092 14.4282 51.2199 14.5725 51.2333 14.7168C51.236 14.7569 51.2414 14.797 51.244 14.8371C51.2494 14.8959 51.2574 14.9547 51.2655 15.0134C51.2708 15.0509 51.2735 15.0883 51.2789 15.1257C51.2789 15.131 51.2789 15.1364 51.2789 15.1417C51.6618 17.9425 53.2444 20.6069 53.2444 20.6069V23.0228L53.381 23.0014L53.464 22.988L53.7666 22.9426V23.5252L53.4318 23.731L54.3262 25.7006L54.586 25.738L54.7734 26.6306L55.9222 27.7771L55.9276 27.7824L55.9222 27.7878L55.6303 28.0417L55.7803 28.822L56.1954 28.6964L56.4149 30.0861L56.5756 37.7133L56.3935 37.9832L56.2998 38.1221L56.34 41.7246L56.3587 43.3227C79.4576 43.1196 102.948 42.6172 102.948 42.6172L89.628 42.2511V42.2484Z" fill="#1F305E"/>
<path d="M55.6678 31.1632C55.1778 30.0808 54.4146 29.6024 53.962 30.0968C53.5095 30.5886 53.5389 31.866 54.029 32.9484C54.519 34.0307 55.2822 34.5091 55.7348 34.0147C56.1873 33.5229 56.1579 32.2455 55.6678 31.1632ZM55.0948 34.0066L55.0599 34.0227C55.0466 34.0307 55.0305 34.0334 55.0144 34.0334C54.9957 34.0334 54.9769 34.028 54.9582 34.0173C54.9261 33.9986 54.9073 33.9666 54.902 33.9318L54.8029 32.8602L54.7841 32.9697C54.7761 33.0098 54.7493 33.0446 54.7092 33.0579C54.6984 33.0606 54.685 33.0633 54.6743 33.0633C54.6476 33.0633 54.6181 33.0526 54.5967 33.0339L54.5672 33.0045C54.5404 32.9804 54.5271 32.943 54.5324 32.9056L54.6743 32.0371C54.6636 31.9836 54.6636 31.9275 54.6743 31.874C54.6958 31.7751 54.744 31.7057 54.8109 31.6789C54.8591 31.6602 54.9127 31.6656 54.9555 31.695C55.0492 31.7591 55.0653 31.9114 55.0439 32.0237C55.0332 32.0718 55.0144 32.1119 54.9903 32.1439L55.159 33.8944C55.1644 33.9425 55.1376 33.9879 55.0948 34.0066Z" fill="#1F305E"/>
<path d="M50.055 28.9103C49.2543 28.2876 47.9449 28.6243 47.1308 29.6666C46.3168 30.7088 46.3061 32.0584 47.1067 32.6811C47.9074 33.3038 49.2169 32.9671 50.0309 31.9248C50.845 30.8826 50.8557 29.533 50.055 28.9103ZM48.7777 30.9467C48.7429 30.9921 48.6974 31.0189 48.6492 31.0402L48.3278 32.8308C48.3171 32.8842 48.2716 32.9216 48.218 32.9216H48.1564C48.1243 32.9216 48.0922 32.9083 48.0707 32.8816C48.0493 32.8548 48.0413 32.8228 48.0466 32.7907L48.3171 31.3235L48.0092 31.7645C47.9904 31.7912 47.961 31.8099 47.9261 31.8126C47.9235 31.8126 47.9208 31.8126 47.9154 31.8126C47.886 31.8126 47.8565 31.8019 47.8351 31.7805L47.7923 31.7377C47.7548 31.7003 47.7494 31.6415 47.7789 31.5961L48.3171 30.8077C48.3225 30.7489 48.3412 30.6875 48.3787 30.6394C48.4323 30.5699 48.5099 30.5245 48.5876 30.5164C48.6492 30.5084 48.7107 30.5245 48.7589 30.5619C48.8071 30.5993 48.8366 30.6527 48.8446 30.7169C48.8554 30.7944 48.8286 30.8799 48.775 30.9494L48.7777 30.9467Z" fill="#1F305E"/>
<path d="M5.2522 55.3462H3.80081V58.5131C3.80081 58.9487 3.49286 59.272 3.04031 59.272C2.58776 59.272 2.29587 58.946 2.29587 58.5131V49.4668C2.29587 49.0312 2.58508 48.7078 3.04031 48.7078C3.49554 48.7078 3.80081 49.0339 3.80081 49.4668V52.6337H5.2522V49.6111C5.2522 48.3444 4.40065 47.4758 3.11261 47.4758C1.69872 47.4758 0.847168 48.3444 0.847168 49.6111V58.35C0.847168 59.6355 1.69872 60.504 2.96801 60.504C4.40065 60.504 5.2522 59.6355 5.2522 58.35V55.3462Z" fill="#1F305E"/>
<path d="M7.50163 60.3222L7.79083 57.1019H9.45912L9.76707 60.3222H11.2185L9.98665 47.6548H6.74113V48.2347L7.15887 48.5233L6.03418 60.3195H7.50163V60.3222ZM8.53527 48.8868H8.67987L9.35201 55.8726H7.90063L8.53527 48.8868Z" fill="#1F305E"/>
<path d="M13.722 60.3222V51.6742H13.8291L15.4251 60.3222H17.4201V47.6548H15.9687V56.4872H15.8964L14.2094 47.6548H11.7993V48.2347L12.2706 48.5607V60.3222H13.722Z" fill="#1F305E"/>
<path d="M19.8517 60.3222L20.1409 57.1019H21.8092L22.1172 60.3222H23.5686L22.3368 47.6548H19.0912V48.2347L19.509 48.5233L18.3843 60.3195H19.8517V60.3222ZM20.8854 48.8868H21.03L21.7021 55.8726H20.2507L20.8854 48.8868Z" fill="#1F305E"/>
<path d="M26.7603 60.3222C28.1206 60.3222 29.0257 59.4163 29.0257 58.0426V49.9371C29.0257 48.5447 28.118 47.6575 26.7603 47.6575H24.1494V48.2374L24.6207 48.5634V60.3249H26.7603V60.3222ZM26.0721 48.8868H26.7067C27.2155 48.8868 27.577 49.2315 27.577 49.7741V58.2056C27.577 58.7481 27.2155 59.0929 26.7067 59.0929H26.0721V48.8868Z" fill="#1F305E"/>
<path d="M31.278 60.3222L31.5672 57.1019H33.2355L33.5434 60.3222H34.9948L33.763 47.6548H30.5175V48.2347L30.9352 48.5233L29.8105 60.3195H31.278V60.3222ZM32.3116 48.8868H32.4562L33.1284 55.8726H31.677L32.3116 48.8868Z" fill="#1F305E"/>
<path d="M43.9627 58.0426V49.9371C43.9627 48.5447 43.055 47.6575 41.6973 47.6575H39.0864V48.2374L39.5577 48.5634V60.3249H41.6973C43.0576 60.3249 43.9627 59.4189 43.9627 58.0453V58.0426ZM41.0064 48.8868H41.6411C42.1499 48.8868 42.5114 49.2315 42.5114 49.7741V58.2056C42.5114 58.7481 42.1499 59.0929 41.6411 59.0929H41.0064V48.8868Z" fill="#1F305E"/>
<path d="M67.5142 47.8474V48.43L67.9881 48.756V60.595H71.638V59.3577H69.4476V47.8474H67.5142Z" fill="#1F305E"/>
<path d="M74.9241 47.6655C73.4995 47.6655 72.6426 48.5394 72.6426 49.8142V58.6119C72.6426 59.9054 73.4995 60.7793 74.7768 60.7793C76.2175 60.7793 77.0771 59.9054 77.0771 58.6119V49.8142C77.0771 48.5394 76.2202 47.6655 74.9241 47.6655ZM74.102 58.7749V49.6672C74.102 49.2289 74.3939 48.9029 74.8491 48.9029C75.3043 48.9029 75.615 49.2316 75.615 49.6672V58.7749C75.615 59.2132 75.2856 59.5392 74.8491 59.5392C74.4126 59.5392 74.102 59.2105 74.102 58.7749Z" fill="#1F305E"/>
<path d="M83.7181 60.595V47.8474H82.2587V56.736H82.1864L80.4886 47.8474H78.0625V48.43L78.5365 48.756V60.595H79.9959V51.8908H80.1057L81.7124 60.595H83.7181Z" fill="#1F305E"/>
<path d="M89.7966 58.302V50.143C89.7966 48.74 88.8835 47.8474 87.5151 47.8474H84.8882V48.43L85.3622 48.7587V60.5977H87.5151C88.8835 60.5977 89.7966 59.6864 89.7966 58.302ZM88.3372 58.4651C88.3372 59.0102 87.973 59.3577 87.4616 59.3577H86.8216V49.0848H87.4616C87.973 49.0848 88.3372 49.4295 88.3372 49.9774V58.4651Z" fill="#1F305E"/>
<path d="M93.208 60.7793C94.6486 60.7793 95.5082 59.9054 95.5082 58.6119V49.8142C95.5082 48.5394 94.6513 47.6655 93.3552 47.6655C91.9306 47.6655 91.0737 48.5394 91.0737 49.8142V58.6119C91.0737 59.9054 91.9306 60.7793 93.208 60.7793ZM92.5332 49.6672C92.5332 49.2289 92.825 48.9029 93.2803 48.9029C93.7355 48.9029 94.0461 49.2316 94.0461 49.6672V58.7749C94.0461 59.2132 93.7168 59.5392 93.2803 59.5392C92.8438 59.5392 92.5332 59.2105 92.5332 58.7749V49.6672Z" fill="#1F305E"/>
<path d="M100.692 47.8474V56.736H100.618L98.9224 47.8474H96.4937V48.43L96.9676 48.756V60.595H98.4297V51.8908H98.5368L100.144 60.595H102.152V47.8474H100.692Z" fill="#1F305E"/>
<path d="M45.54 47.6548V48.2347L45.9577 48.5233L44.833 60.3195H46.3005L46.5897 57.0992H48.258L48.5659 60.3195H50.0173L48.7855 47.6521H45.54V47.6548ZM46.6995 55.8699L47.3341 48.8841H47.4787L48.1508 55.8699H46.6995Z" fill="#1F305E"/>
<path d="M53.0861 53.5368H52.9951L51.8891 47.6548H50.7591H50.0923V48.2347L50.6546 48.5795L50.7242 48.8814L52.3042 55.763V60.3222H53.7556V55.763L55.6059 47.6548H54.1546L53.0861 53.5368Z" fill="#1F305E"/>
<path d="M61.1278 56.1719C61.4973 56.1719 61.8427 56.0624 62.1319 55.8726C62.6354 55.5439 62.9674 54.98 62.9674 54.3333C62.9674 53.6866 62.6193 53.0986 62.0944 52.7726C61.8133 52.5989 61.4812 52.4973 61.1278 52.4973C60.1102 52.4973 59.2881 53.3204 59.2881 54.3333C59.2881 55.3461 60.1129 56.1693 61.1278 56.1693V56.1719Z" fill="#1F305E"/>
</g>
<defs>
<clipPath id="clip0_6330_25067">
<rect width="103" height="85" fill="white" transform="translate(-0.00146484 0.568848)"/>
</clipPath>
</defs>
</svg>

<svg width="103" height="86" fill="none" xmlns="http://www.w3.org/2000/svg"><g clip-path="url(#a)" fill="#1F305E"><path d="M-.001 65.034s15.523.732 28.773.609l-.672 7.13 21.066-2.01v14.808h5.19V70.886l21.372 1.767-.978-7.007s20.373.243 28.249-.671c0 0-31.668-.428-48.948-.67-17.28-.244-54.052.731-54.052.731v-.002ZM89.628 42.248l4.764-10.358-13.312 4.631-6.29-8.53-11.295 13.041 7.999-27.788-12.64 4.45L51.648.569 44.26 17.753l-12.762-4.509 8.06 27.727-11.48-12.857-5.985 8.226L8.72 31.83l4.518 10.115-13.189.669s21.983.73 44.961.753l.185-6.55-.297-.409.326-8.175.008-.23.016-.008.132-.067.13.433.504-.061-.045-1.6-.14-.084.03-.294c.094-.075.185-.155.276-.235l.032-.032c.088-.083.177-.166.262-.251l.07-.072c.126-.129.246-.26.359-.39.04-.046.075-.091.115-.137.043-.05.088-.104.128-.155l.105-.133c.056-.07.107-.14.16-.209.033-.045.068-.088.1-.133l.163-.23.088-.129c.051-.075.1-.15.145-.219.027-.043.053-.085.08-.125a9.554 9.554 0 0 0 .244-.407l.043-.074c.078-.137.118-.217.118-.217l-.308-.444.22-.205.01-.011.123-.115.292.126v-.096l-.037-1.794-.25-.4s.017-.02.025-.027c2.584-2.892 2.554-5.848 2.554-5.848l-.367-.366.431-.43v-.214l-.133.128s.013.027.013.043a.083.083 0 0 1-.083.083.083.083 0 0 1-.083-.083c0-.043.032-.077.075-.083l.107-.176-.136-.094-.1.067s.006.022.006.032a.083.083 0 0 1-.083.083.083.083 0 0 1-.083-.083c0-.045.037-.083.083-.083.013 0 .027.006.04.011l.378-.43v-.203a.143.143 0 0 1 0-.278v-.246h.072v.243a.144.144 0 0 1 .112.142c0 .07-.048.125-.112.142v.203l.377.43s.024-.01.04-.01c.046 0 .084.037.084.082a.083.083 0 0 1-.083.083.083.083 0 0 1-.083-.083c0-.01 0-.021.005-.032l-.1-.067-.136.094.107.176c.04.005.075.04.075.083a.083.083 0 0 1-.083.083.083.083 0 0 1-.083-.083c0-.016.006-.03.014-.043l-.134-.128v.24l.39.39-.3.3c.006.144.017.288.03.433l.011.12c.005.059.013.118.022.176l.013.113v.016c.383 2.8 1.965 5.465 1.965 5.465v2.416l.137-.022.083-.013.303-.045v.582l-.335.206.894 1.97.26.037.187.893 1.15 1.146.005.005-.006.006-.292.254.15.78.415-.126.22 1.39.16 7.627-.181.27-.094.14.04 3.602.019 1.598c23.099-.203 46.589-.706 46.589-.706l-13.32-.366v-.003Z"/><path d="M55.668 31.163c-.49-1.082-1.253-1.56-1.706-1.066-.453.492-.423 1.769.067 2.851.49 1.083 1.253 1.561 1.706 1.067.452-.492.423-1.77-.067-2.852Zm-.573 2.844-.035.016a.088.088 0 0 1-.046.01.118.118 0 0 1-.112-.102l-.1-1.07-.018.109a.115.115 0 0 1-.075.088.157.157 0 0 1-.035.005.122.122 0 0 1-.077-.03l-.03-.029a.112.112 0 0 1-.035-.098l.142-.869a.418.418 0 0 1 0-.163c.022-.099.07-.168.137-.195a.155.155 0 0 1 .145.016c.093.064.11.216.088.329a.31.31 0 0 1-.054.12l.169 1.75a.11.11 0 0 1-.064.113ZM50.055 28.91c-.8-.622-2.11-.286-2.924.757-.814 1.042-.825 2.391-.024 3.014.8.623 2.11.286 2.924-.756.814-1.042.825-2.392.024-3.015Zm-1.277 2.037a.313.313 0 0 1-.129.093l-.321 1.79a.112.112 0 0 1-.11.092h-.062a.11.11 0 0 1-.085-.04.114.114 0 0 1-.024-.091l.27-1.467-.308.44a.112.112 0 0 1-.083.049h-.01a.113.113 0 0 1-.08-.032l-.044-.043a.113.113 0 0 1-.013-.142l.538-.788a.313.313 0 0 1 .27-.291.226.226 0 0 1 .257.2.319.319 0 0 1-.069.232l.003-.002ZM5.252 55.346H3.801v3.167c0 .436-.308.759-.76.759-.453 0-.745-.326-.745-.759v-9.046c0-.436.29-.76.744-.76.456 0 .76.327.76.76v3.167h1.452V49.61c0-1.267-.851-2.135-2.14-2.135-1.413 0-2.265.868-2.265 2.135v8.739c0 1.285.852 2.154 2.121 2.154 1.433 0 2.284-.868 2.284-2.154v-3.004ZM7.502 60.322l.289-3.22h1.668l.308 3.22h1.452L9.987 47.655H6.74v.58l.418.288L6.034 60.32h1.468v.003Zm1.033-11.435h.145l.672 6.986H7.901l.634-6.986ZM13.722 60.322v-8.648h.107l1.596 8.648h1.995V47.655H15.97v8.832h-.073l-1.687-8.832H11.8v.58l.472.326v11.761h1.451ZM19.852 60.322l.289-3.22h1.668l.308 3.22h1.452l-1.232-12.667H19.09v.58l.418.288-1.125 11.796h1.468v.003Zm1.033-11.435h.145l.672 6.986h-1.451l.634-6.986ZM26.76 60.322c1.36 0 2.266-.906 2.266-2.28v-8.105c0-1.392-.908-2.28-2.266-2.28h-2.61v.58l.47.326v11.762h2.14v-.003Zm-.688-11.435h.635c.508 0 .87.344.87.887v8.432c0 .542-.362.887-.87.887h-.635V48.887ZM31.278 60.322l.29-3.22h1.668l.307 3.22h1.452l-1.232-12.667h-3.245v.58l.417.288-1.124 11.796h1.467v.003Zm1.034-11.435h.144l.672 6.986h-1.451l.635-6.986ZM43.963 58.043v-8.106c0-1.392-.908-2.28-2.266-2.28h-2.61v.58l.47.326v11.762h2.14c1.36 0 2.266-.906 2.266-2.28v-.002Zm-2.957-9.156h.635c.509 0 .87.344.87.887v8.432c0 .542-.361.887-.87.887h-.635V48.887ZM67.514 47.847v.583l.474.326v11.839h3.65v-1.237h-2.19v-11.51h-1.934ZM74.924 47.666c-1.425 0-2.281.873-2.281 2.148v8.798c0 1.293.856 2.167 2.134 2.167 1.44 0 2.3-.874 2.3-2.167v-8.798c0-1.275-.857-2.148-2.153-2.148Zm-.822 11.109v-9.108c0-.438.292-.764.747-.764s.766.329.766.764v9.108c0 .438-.33.764-.766.764s-.747-.328-.747-.764ZM83.718 60.595V47.847h-1.46v8.889h-.072l-1.697-8.889h-2.427v.583l.475.326v11.839h1.459v-8.704h.11l1.606 8.704h2.006ZM89.797 58.302v-8.159c0-1.403-.913-2.296-2.282-2.296h-2.627v.583l.474.329v11.839h2.153c1.368 0 2.282-.912 2.282-2.296Zm-1.46.163c0 .545-.364.893-.875.893h-.64V49.085h.64c.511 0 .875.344.875.892v8.488ZM93.208 60.78c1.44 0 2.3-.875 2.3-2.168v-8.798c0-1.275-.857-2.148-2.153-2.148-1.424 0-2.281.873-2.281 2.148v8.798c0 1.293.857 2.167 2.134 2.167Zm-.675-11.113c0-.438.292-.764.747-.764.456 0 .766.329.766.764v9.108c0 .438-.33.764-.766.764s-.747-.328-.747-.764v-9.108ZM100.692 47.847v8.889h-.074l-1.696-8.889h-2.428v.583l.474.326v11.839h1.462v-8.704h.107l1.607 8.704h2.008V47.847h-1.46ZM45.54 47.655v.58l.418.288-1.125 11.796h1.468l.289-3.22h1.668l.308 3.22h1.451l-1.232-12.667H45.54v.003Zm1.16 8.215.634-6.986h.145l.672 6.986h-1.452ZM53.086 53.537h-.09l-1.107-5.882h-1.797v.58l.563.345.07.301 1.58 6.882v4.56h1.45v-4.56l1.85-8.108h-1.45l-1.069 5.882ZM61.128 56.172c.37 0 .715-.11 1.004-.3a1.832 1.832 0 0 0-.038-3.1 1.838 1.838 0 0 0-2.806 1.56 1.84 1.84 0 0 0 1.84 1.837v.003Z"/></g><defs><clipPath id="a"><path fill="#fff" transform="translate(-.001 .569)" d="M0 0h103v85H0z"/></clipPath></defs></svg>
